X:1
T:Title
%%score ( 1 2 ) ( 3 4 )
L:1/8
Q:1/4=108
M:4/4
K:D
V:1 treble nm="Grand Piano, Staff 1"
V:2 treble 
V:3 bass nm="Choir Pad, Shoreham"
V:4 bass 
V:1
 [DF]2 [DF]2- [DF][DF] [DG]2 | [DF]2 [B,E]2 [CB]2 [DA]2 | z4 z2 B2 | [FA]2 [EG]2 [DG]2 [CF]2 | %4
w: By~John~Bacchus~Dykes,~1871 * * * *||||
 z4 z2 G2 | z4 z2 G2 | z2 D4 z2 | z8 | z8 |] %9
w: |||||
V:2
 x8 | x8 | [CA]2 [Dd]2 [Dc]2 DE | x8 | [DF]2 [DF]2- [DF][CF]B,C | [DF]2 [B,E]2 [B,B]2 B,2- | %6
 [B,E]2 A,2 B,2 [CF]2- | [CF][CE] D6- | D2 z2 z4 |] %9
V:3
 [D,A,]2 [D,A,]2- [D,A,][D,A,] [D,B,]2 | [D,A,]2 [D,^G,]2 [D,=G,]2 [D,F,]2 | z4 z2 .B,2 | %3
 [D,D]2 [E,B,]2 [E,B,]2 [F,^A,]2 | [D,A,]2 [D,A,]2- [D,A,][D,A,] [E,G,]2 | z4 z2 G,2- | %6
 G,2 F,2 z4 | z8 | z8 |] %9
V:4
 x8 | x8 | A,G, [F,A,]2 [F,A,]2 G,-[G,C] | x8 | x8 | [F,A,]2 G,2 [^D,F,]2 E,2 | %6
 G,,2 A,,2- [A,,G,]2 [A,,A,]2- | [A,,A,][A,,G,] [D,F,]6- | [D,F,]2 z2 z4 |] %9

